report_00007_2020-12-11T15:55:29.892Z/first-meaningful-paint/samples/pages/raw/values.svg

<svg width="640" height="490" xmlns="http://www.w3.org/2000/svg" xmlns:xlink="http://www.w3.org/1999/xlink"><path fill="#fff" d="M0 0h640v490H0z"/><defs><path id="d" stroke-width=".222" stroke="currentColor" d="M-1-1h2v2h-2z"/><path id="b" stroke-width=".222" stroke="currentColor" d="M0-1.33l-1.33 2h2.66z"/><path id="f" stroke-width=".222" stroke="currentColor" d="M0 1.33L1.265.411.782-1.067l-1.564-.009-.483 1.487z"/><use xlink:href="#b" id="c" stroke="currentColor" transform="rotate(180)"/><use xlink:href="#d" id="e" stroke="currentColor" transform="rotate(45)"/><circle id="a" stroke-width=".222" stroke="currentColor" cx="0" cy="0" r="1"/></defs><g fill="none" color="#000" stroke="currentColor"><path stroke="#000" d="M62.2 420.9h9m543.8 0h-9"/><text transform="translate(53.9 424.8)" stroke="none" fill="#000" font-family="Arial" font-size="12" text-anchor="end"><tspan>2000</tspan></text></g><g fill="none" color="#000" stroke="currentColor"><path stroke="#000" d="M62.2 356.8h9m543.8 0h-9"/><text transform="translate(53.9 360.7)" stroke="none" fill="#000" font-family="Arial" font-size="12" text-anchor="end"><tspan>2500</tspan></text></g><g fill="none" color="#000" stroke="currentColor"><path stroke="#000" d="M62.2 292.7h9m543.8 0h-9"/><text transform="translate(53.9 296.6)" stroke="none" fill="#000" font-family="Arial" font-size="12" text-anchor="end"><tspan>3000</tspan></text></g><g fill="none" color="#000" stroke="currentColor"><path stroke="#000" d="M62.2 228.7h9m543.8 0h-9"/><text transform="translate(53.9 232.6)" stroke="none" fill="#000" font-family="Arial" font-size="12" text-anchor="end"><tspan>3500</tspan></text></g><g fill="none" color="#000" stroke="currentColor"><path stroke="#000" d="M62.2 164.6h9m543.8 0h-9"/><text transform="translate(53.9 168.5)" stroke="none" fill="#000" font-family="Arial" font-size="12" text-anchor="end"><tspan>4000</tspan></text></g><g fill="none" color="#000" stroke="currentColor"><path stroke="#000" d="M62.2 100.5h9m543.8 0h-9"/><text transform="translate(53.9 104.4)" stroke="none" fill="#000" font-family="Arial" font-size="12" text-anchor="end"><tspan>4500</tspan></text></g><g fill="none" color="#000" stroke="currentColor"><path stroke="#000" d="M62.2 36.4h9m543.8 0h-9"/><text transform="translate(53.9 40.3)" stroke="none" fill="#000" font-family="Arial" font-size="12" text-anchor="end"><tspan>5000</tspan></text></g><g fill="none" color="#000" stroke="currentColor"><path stroke="#000" d="M62.2 436v-9m0-408.9v9"/><text transform="translate(62.2 457.9)" stroke="none" fill="#000" font-family="Arial" font-size="12" text-anchor="middle"><tspan>0</tspan></text></g><g fill="none" color="#000" stroke="currentColor"><path stroke="#000" d="M118 436v-9m0-408.9v9"/><text transform="translate(118 457.9)" stroke="none" fill="#000" font-family="Arial" font-size="12" text-anchor="middle"><tspan>10</tspan></text></g><g fill="none" color="#000" stroke="currentColor"><path stroke="#000" d="M173.9 436v-9m0-408.9v9"/><text transform="translate(173.9 457.9)" stroke="none" fill="#000" font-family="Arial" font-size="12" text-anchor="middle"><tspan>20</tspan></text></g><g fill="none" color="#000" stroke="currentColor"><path stroke="#000" d="M229.7 436v-9m0-408.9v9"/><text transform="translate(229.7 457.9)" stroke="none" fill="#000" font-family="Arial" font-size="12" text-anchor="middle"><tspan>30</tspan></text></g><g fill="none" color="#000" stroke="currentColor"><path stroke="#000" d="M285.6 436v-9m0-408.9v9"/><text transform="translate(285.6 457.9)" stroke="none" fill="#000" font-family="Arial" font-size="12" text-anchor="middle"><tspan>40</tspan></text></g><g fill="none" color="#000" stroke="currentColor"><path stroke="#000" d="M341.4 436v-9m0-408.9v9"/><text transform="translate(341.4 457.9)" stroke="none" fill="#000" font-family="Arial" font-size="12" text-anchor="middle"><tspan>50</tspan></text></g><g fill="none" color="#000" stroke="currentColor"><path stroke="#000" d="M397.2 436v-9m0-408.9v9"/><text transform="translate(397.2 457.9)" stroke="none" fill="#000" font-family="Arial" font-size="12" text-anchor="middle"><tspan>60</tspan></text></g><g fill="none" color="#000" stroke="currentColor"><path stroke="#000" d="M453.1 436v-9m0-408.9v9"/><text transform="translate(453.1 457.9)" stroke="none" fill="#000" font-family="Arial" font-size="12" text-anchor="middle"><tspan>70</tspan></text></g><g fill="none" color="#000" stroke="currentColor"><path stroke="#000" d="M508.9 436v-9m0-408.9v9"/><text transform="translate(508.9 457.9)" stroke="none" fill="#000" font-family="Arial" font-size="12" text-anchor="middle"><tspan>80</tspan></text></g><g fill="none" color="#000" stroke="currentColor"><path stroke="#000" d="M564.7 436v-9m0-408.9v9"/><text transform="translate(564.7 457.9)" stroke="none" fill="#000" font-family="Arial" font-size="12" text-anchor="middle"><tspan>90</tspan></text></g><path stroke="#000" d="M62.2 18.1V436H615V18.1H62.2z" fill="none" color="#000"/><text transform="translate(179.8 475.9)" stroke="none" fill="#000" font-family="Arial" font-size="12" text-anchor="end" color="#000"><tspan>raw</tspan></text><path stroke="#9400D3" d="M188.1 472h42.2M62.2 26.1L67.8 426l5.6.2 5.6-4.6 5.5 5.7 5.6-.8 5.6.4 5.6-.5 5.6 1 5.6-.4 5.5.8 5.6-26.3 5.6 25.2 5.6.8 5.6-.6 5.6-7.1 5.5 7 5.6.6 5.6.4 5.6-2.8 5.6 2.3 5.6.4L185 398l5.6 21 5.6 7.8 5.6 1.2 5.6-1.9 5.6.5 5.5.7 5.6.2 5.6-1 5.6.5 5.6.2 5.6.5 5.6-13.1 5.5 12.7 5.6.4 5.6-.6 5.6-.4 5.6.7 5.6-.9 5.5 1.2 5.6-1.4 5.6-7.6 5.6 8.5 5.6-10.1 5.6 8.8 5.5 1.2 5.6.4 5.6-.7 5.6-19.9 5.6 19.7 5.6 1.3 5.5-1 5.6-1.1 5.6 2.1 5.6-30.6 5.6 29.2 5.6.6 5.5.8 5.6-10.2 5.6 10.1h5.6l5.6-.5 5.6-1 5.5 1.5 5.6-.3 5.6.4 5.6-15.9 5.6 15.7 5.6-.1 5.6-.3 5.5-.3 5.6.8 5.6-.3h5.6l5.6-1.4 5.6 1.6 5.5-.3 5.6-14.3 5.6 13.2 5.6.9 5.6.4 5.6-.5 5.5-.5 5.6-372.1 5.6 372.1 5.6.1 5.6 1.3 5.6-29.5 5.5 28.7 5.6-.3 5.6 1 5.6-1h5.6l5.6-7.8 5.5 8 5.6-.4 5.6 1 5.6-1.5" fill="none" color="#000"/><text transform="translate(379.7 475.9)" stroke="none" fill="#000" font-family="Arial" font-size="12" text-anchor="end" color="#000"><tspan>score p10=2336</tspan></text><path stroke="#009E73" d="M388 472h42.2m-368-94.2H615" fill="none" color="#000"/><text transform="translate(579.6 475.9)" stroke="none" fill="#000" font-family="Arial" font-size="12" text-anchor="end" color="#000"><tspan>score median=4000</tspan></text><path stroke="#56B4E9" d="M587.9 472h42.2M62.2 164.6H615" fill="none" color="#000"/><g fill="none" color="#000" stroke="currentColor"><path stroke="#000" d="M62.2 18.1V436H615V18.1H62.2z"/></g></svg>

<?xml version="1.0" encoding="utf-8"  standalone="no"?>
<svg 
 width="640" height="490"
 viewBox="0 0 640 490"
 xmlns="http://www.w3.org/2000/svg"
 xmlns:xlink="http://www.w3.org/1999/xlink"
>

<title>Gnuplot</title>
<desc>Produced by GNUPLOT 5.4 patchlevel 0 </desc>

<g id="gnuplot_canvas">

<rect x="0" y="0" width="640" height="490" fill="#ffffff"/>
<defs>

	<circle id='gpDot' r='0.5' stroke-width='0.5' stroke='currentColor'/>
	<path id='gpPt0' stroke-width='0.222' stroke='currentColor' d='M-1,0 h2 M0,-1 v2'/>
	<path id='gpPt1' stroke-width='0.222' stroke='currentColor' d='M-1,-1 L1,1 M1,-1 L-1,1'/>
	<path id='gpPt2' stroke-width='0.222' stroke='currentColor' d='M-1,0 L1,0 M0,-1 L0,1 M-1,-1 L1,1 M-1,1 L1,-1'/>
	<rect id='gpPt3' stroke-width='0.222' stroke='currentColor' x='-1' y='-1' width='2' height='2'/>
	<rect id='gpPt4' stroke-width='0.222' stroke='currentColor' fill='currentColor' x='-1' y='-1' width='2' height='2'/>
	<circle id='gpPt5' stroke-width='0.222' stroke='currentColor' cx='0' cy='0' r='1'/>
	<use xlink:href='#gpPt5' id='gpPt6' fill='currentColor' stroke='none'/>
	<path id='gpPt7' stroke-width='0.222' stroke='currentColor' d='M0,-1.33 L-1.33,0.67 L1.33,0.67 z'/>
	<use xlink:href='#gpPt7' id='gpPt8' fill='currentColor' stroke='none'/>
	<use xlink:href='#gpPt7' id='gpPt9' stroke='currentColor' transform='rotate(180)'/>
	<use xlink:href='#gpPt9' id='gpPt10' fill='currentColor' stroke='none'/>
	<use xlink:href='#gpPt3' id='gpPt11' stroke='currentColor' transform='rotate(45)'/>
	<use xlink:href='#gpPt11' id='gpPt12' fill='currentColor' stroke='none'/>
	<path id='gpPt13' stroke-width='0.222' stroke='currentColor' d='M0,1.330 L1.265,0.411 L0.782,-1.067 L-0.782,-1.076 L-1.265,0.411 z'/>
	<use xlink:href='#gpPt13' id='gpPt14' fill='currentColor' stroke='none'/>
	<filter id='textbox' filterUnits='objectBoundingBox' x='0' y='0' height='1' width='1'>
	  <feFlood flood-color='#FFFFFF' flood-opacity='1' result='bgnd'/>
	  <feComposite in='SourceGraphic' in2='bgnd' operator='atop'/>
	</filter>
	<filter id='greybox' filterUnits='objectBoundingBox' x='0' y='0' height='1' width='1'>
	  <feFlood flood-color='lightgrey' flood-opacity='1' result='grey'/>
	  <feComposite in='SourceGraphic' in2='grey' operator='atop'/>
	</filter>
</defs>
<g fill="none" color="#FFFFFF" stroke="black" stroke-width="1.00" stroke-linecap="butt" stroke-linejoin="miter">
</g>
<g fill="none" color="black" stroke="currentColor" stroke-width="1.00" stroke-linecap="butt" stroke-linejoin="miter">
	<path stroke='black'  d='M62.2,420.9 L71.2,420.9 M615.0,420.9 L606.0,420.9  '/>	<g transform="translate(53.9,424.8)" stroke="none" fill="black" font-family="Arial" font-size="12.00"  text-anchor="end">
		<text><tspan font-family="Arial" > 2000</tspan></text>
	</g>
</g>
<g fill="none" color="black" stroke="currentColor" stroke-width="1.00" stroke-linecap="butt" stroke-linejoin="miter">
	<path stroke='black'  d='M62.2,356.8 L71.2,356.8 M615.0,356.8 L606.0,356.8  '/>	<g transform="translate(53.9,360.7)" stroke="none" fill="black" font-family="Arial" font-size="12.00"  text-anchor="end">
		<text><tspan font-family="Arial" > 2500</tspan></text>
	</g>
</g>
<g fill="none" color="black" stroke="currentColor" stroke-width="1.00" stroke-linecap="butt" stroke-linejoin="miter">
	<path stroke='black'  d='M62.2,292.7 L71.2,292.7 M615.0,292.7 L606.0,292.7  '/>	<g transform="translate(53.9,296.6)" stroke="none" fill="black" font-family="Arial" font-size="12.00"  text-anchor="end">
		<text><tspan font-family="Arial" > 3000</tspan></text>
	</g>
</g>
<g fill="none" color="black" stroke="currentColor" stroke-width="1.00" stroke-linecap="butt" stroke-linejoin="miter">
	<path stroke='black'  d='M62.2,228.7 L71.2,228.7 M615.0,228.7 L606.0,228.7  '/>	<g transform="translate(53.9,232.6)" stroke="none" fill="black" font-family="Arial" font-size="12.00"  text-anchor="end">
		<text><tspan font-family="Arial" > 3500</tspan></text>
	</g>
</g>
<g fill="none" color="black" stroke="currentColor" stroke-width="1.00" stroke-linecap="butt" stroke-linejoin="miter">
	<path stroke='black'  d='M62.2,164.6 L71.2,164.6 M615.0,164.6 L606.0,164.6  '/>	<g transform="translate(53.9,168.5)" stroke="none" fill="black" font-family="Arial" font-size="12.00"  text-anchor="end">
		<text><tspan font-family="Arial" > 4000</tspan></text>
	</g>
</g>
<g fill="none" color="black" stroke="currentColor" stroke-width="1.00" stroke-linecap="butt" stroke-linejoin="miter">
	<path stroke='black'  d='M62.2,100.5 L71.2,100.5 M615.0,100.5 L606.0,100.5  '/>	<g transform="translate(53.9,104.4)" stroke="none" fill="black" font-family="Arial" font-size="12.00"  text-anchor="end">
		<text><tspan font-family="Arial" > 4500</tspan></text>
	</g>
</g>
<g fill="none" color="black" stroke="currentColor" stroke-width="1.00" stroke-linecap="butt" stroke-linejoin="miter">
	<path stroke='black'  d='M62.2,36.4 L71.2,36.4 M615.0,36.4 L606.0,36.4  '/>	<g transform="translate(53.9,40.3)" stroke="none" fill="black" font-family="Arial" font-size="12.00"  text-anchor="end">
		<text><tspan font-family="Arial" > 5000</tspan></text>
	</g>
</g>
<g fill="none" color="black" stroke="currentColor" stroke-width="1.00" stroke-linecap="butt" stroke-linejoin="miter">
	<path stroke='black'  d='M62.2,436.0 L62.2,427.0 M62.2,18.1 L62.2,27.1  '/>	<g transform="translate(62.2,457.9)" stroke="none" fill="black" font-family="Arial" font-size="12.00"  text-anchor="middle">
		<text><tspan font-family="Arial" > 0</tspan></text>
	</g>
</g>
<g fill="none" color="black" stroke="currentColor" stroke-width="1.00" stroke-linecap="butt" stroke-linejoin="miter">
	<path stroke='black'  d='M118.0,436.0 L118.0,427.0 M118.0,18.1 L118.0,27.1  '/>	<g transform="translate(118.0,457.9)" stroke="none" fill="black" font-family="Arial" font-size="12.00"  text-anchor="middle">
		<text><tspan font-family="Arial" > 10</tspan></text>
	</g>
</g>
<g fill="none" color="black" stroke="currentColor" stroke-width="1.00" stroke-linecap="butt" stroke-linejoin="miter">
	<path stroke='black'  d='M173.9,436.0 L173.9,427.0 M173.9,18.1 L173.9,27.1  '/>	<g transform="translate(173.9,457.9)" stroke="none" fill="black" font-family="Arial" font-size="12.00"  text-anchor="middle">
		<text><tspan font-family="Arial" > 20</tspan></text>
	</g>
</g>
<g fill="none" color="black" stroke="currentColor" stroke-width="1.00" stroke-linecap="butt" stroke-linejoin="miter">
	<path stroke='black'  d='M229.7,436.0 L229.7,427.0 M229.7,18.1 L229.7,27.1  '/>	<g transform="translate(229.7,457.9)" stroke="none" fill="black" font-family="Arial" font-size="12.00"  text-anchor="middle">
		<text><tspan font-family="Arial" > 30</tspan></text>
	</g>
</g>
<g fill="none" color="black" stroke="currentColor" stroke-width="1.00" stroke-linecap="butt" stroke-linejoin="miter">
	<path stroke='black'  d='M285.6,436.0 L285.6,427.0 M285.6,18.1 L285.6,27.1  '/>	<g transform="translate(285.6,457.9)" stroke="none" fill="black" font-family="Arial" font-size="12.00"  text-anchor="middle">
		<text><tspan font-family="Arial" > 40</tspan></text>
	</g>
</g>
<g fill="none" color="black" stroke="currentColor" stroke-width="1.00" stroke-linecap="butt" stroke-linejoin="miter">
	<path stroke='black'  d='M341.4,436.0 L341.4,427.0 M341.4,18.1 L341.4,27.1  '/>	<g transform="translate(341.4,457.9)" stroke="none" fill="black" font-family="Arial" font-size="12.00"  text-anchor="middle">
		<text><tspan font-family="Arial" > 50</tspan></text>
	</g>
</g>
<g fill="none" color="black" stroke="currentColor" stroke-width="1.00" stroke-linecap="butt" stroke-linejoin="miter">
	<path stroke='black'  d='M397.2,436.0 L397.2,427.0 M397.2,18.1 L397.2,27.1  '/>	<g transform="translate(397.2,457.9)" stroke="none" fill="black" font-family="Arial" font-size="12.00"  text-anchor="middle">
		<text><tspan font-family="Arial" > 60</tspan></text>
	</g>
</g>
<g fill="none" color="black" stroke="currentColor" stroke-width="1.00" stroke-linecap="butt" stroke-linejoin="miter">
	<path stroke='black'  d='M453.1,436.0 L453.1,427.0 M453.1,18.1 L453.1,27.1  '/>	<g transform="translate(453.1,457.9)" stroke="none" fill="black" font-family="Arial" font-size="12.00"  text-anchor="middle">
		<text><tspan font-family="Arial" > 70</tspan></text>
	</g>
</g>
<g fill="none" color="black" stroke="currentColor" stroke-width="1.00" stroke-linecap="butt" stroke-linejoin="miter">
	<path stroke='black'  d='M508.9,436.0 L508.9,427.0 M508.9,18.1 L508.9,27.1  '/>	<g transform="translate(508.9,457.9)" stroke="none" fill="black" font-family="Arial" font-size="12.00"  text-anchor="middle">
		<text><tspan font-family="Arial" > 80</tspan></text>
	</g>
</g>
<g fill="none" color="black" stroke="currentColor" stroke-width="1.00" stroke-linecap="butt" stroke-linejoin="miter">
	<path stroke='black'  d='M564.7,436.0 L564.7,427.0 M564.7,18.1 L564.7,27.1  '/>	<g transform="translate(564.7,457.9)" stroke="none" fill="black" font-family="Arial" font-size="12.00"  text-anchor="middle">
		<text><tspan font-family="Arial" > 90</tspan></text>
	</g>
</g>
<g fill="none" color="black" stroke="currentColor" stroke-width="1.00" stroke-linecap="butt" stroke-linejoin="miter">
</g>
<g fill="none" color="black" stroke="currentColor" stroke-width="1.00" stroke-linecap="butt" stroke-linejoin="miter">
	<path stroke='black'  d='M62.2,18.1 L62.2,436.0 L615.0,436.0 L615.0,18.1 L62.2,18.1 Z  '/></g>
<g fill="none" color="black" stroke="currentColor" stroke-width="1.00" stroke-linecap="butt" stroke-linejoin="miter">
</g>
	<g id="gnuplot_plot_1" ><title>raw</title>
<g fill="none" color="black" stroke="currentColor" stroke-width="1.00" stroke-linecap="butt" stroke-linejoin="miter">
	<g transform="translate(179.8,475.9)" stroke="none" fill="black" font-family="Arial" font-size="12.00"  text-anchor="end">
		<text><tspan font-family="Arial" >raw</tspan></text>
	</g>
</g>
<g fill="none" color="black" stroke="currentColor" stroke-width="1.00" stroke-linecap="butt" stroke-linejoin="miter">
	<path stroke='rgb(148,   0, 211)'  d='M188.1,472.0 L230.3,472.0 M62.2,26.1 L67.8,426.0 L73.4,426.2 L79.0,421.6 L84.5,427.3 L90.1,426.5
		L95.7,426.9 L101.3,426.4 L106.9,427.4 L112.5,427.0 L118.0,427.8 L123.6,401.5 L129.2,426.7 L134.8,427.5
		L140.4,426.9 L146.0,419.8 L151.5,426.8 L157.1,427.4 L162.7,427.8 L168.3,425.0 L173.9,427.3 L179.5,427.7
		L185.0,398.0 L190.6,419.0 L196.2,426.8 L201.8,428.0 L207.4,426.1 L213.0,426.6 L218.5,427.3 L224.1,427.5
		L229.7,426.5 L235.3,427.0 L240.9,427.2 L246.5,427.7 L252.1,414.6 L257.6,427.3 L263.2,427.7 L268.8,427.1
		L274.4,426.7 L280.0,427.4 L285.6,426.5 L291.1,427.7 L296.7,426.3 L302.3,418.7 L307.9,427.2 L313.5,417.1
		L319.1,425.9 L324.6,427.1 L330.2,427.5 L335.8,426.8 L341.4,406.9 L347.0,426.6 L352.6,427.9 L358.1,426.9
		L363.7,425.8 L369.3,427.9 L374.9,397.3 L380.5,426.5 L386.1,427.1 L391.6,427.9 L397.2,417.7 L402.8,427.8
		L408.4,427.8 L414.0,427.3 L419.6,426.3 L425.1,427.8 L430.7,427.5 L436.3,427.9 L441.9,412.0 L447.5,427.7
		L453.1,427.6 L458.7,427.3 L464.2,427.0 L469.8,427.8 L475.4,427.5 L481.0,427.5 L486.6,426.1 L492.2,427.7
		L497.7,427.4 L503.3,413.1 L508.9,426.3 L514.5,427.2 L520.1,427.6 L525.7,427.1 L531.2,426.6 L536.8,54.5
		L542.4,426.6 L548.0,426.7 L553.6,428.0 L559.2,398.5 L564.7,427.2 L570.3,426.9 L575.9,427.9 L581.5,426.9
		L587.1,426.9 L592.7,419.1 L598.2,427.1 L603.8,426.7 L609.4,427.7 L615.0,426.2  '/></g>
	</g>
	<g id="gnuplot_plot_2" ><title>score p10=2336</title>
<g fill="none" color="black" stroke="currentColor" stroke-width="1.00" stroke-linecap="butt" stroke-linejoin="miter">
	<g transform="translate(379.7,475.9)" stroke="none" fill="black" font-family="Arial" font-size="12.00"  text-anchor="end">
		<text><tspan font-family="Arial" >score p10=2336</tspan></text>
	</g>
</g>
<g fill="none" color="black" stroke="currentColor" stroke-width="1.00" stroke-linecap="butt" stroke-linejoin="miter">
	<path stroke='rgb(  0, 158, 115)'  d='M388.0,472.0 L430.2,472.0 M62.2,377.8 L67.8,377.8 L73.4,377.8 L79.0,377.8 L84.5,377.8 L90.1,377.8
		L95.7,377.8 L101.3,377.8 L106.9,377.8 L112.5,377.8 L118.0,377.8 L123.6,377.8 L129.2,377.8 L134.8,377.8
		L140.4,377.8 L146.0,377.8 L151.5,377.8 L157.1,377.8 L162.7,377.8 L168.3,377.8 L173.9,377.8 L179.5,377.8
		L185.0,377.8 L190.6,377.8 L196.2,377.8 L201.8,377.8 L207.4,377.8 L213.0,377.8 L218.5,377.8 L224.1,377.8
		L229.7,377.8 L235.3,377.8 L240.9,377.8 L246.5,377.8 L252.1,377.8 L257.6,377.8 L263.2,377.8 L268.8,377.8
		L274.4,377.8 L280.0,377.8 L285.6,377.8 L291.1,377.8 L296.7,377.8 L302.3,377.8 L307.9,377.8 L313.5,377.8
		L319.1,377.8 L324.6,377.8 L330.2,377.8 L335.8,377.8 L341.4,377.8 L347.0,377.8 L352.6,377.8 L358.1,377.8
		L363.7,377.8 L369.3,377.8 L374.9,377.8 L380.5,377.8 L386.1,377.8 L391.6,377.8 L397.2,377.8 L402.8,377.8
		L408.4,377.8 L414.0,377.8 L419.6,377.8 L425.1,377.8 L430.7,377.8 L436.3,377.8 L441.9,377.8 L447.5,377.8
		L453.1,377.8 L458.7,377.8 L464.2,377.8 L469.8,377.8 L475.4,377.8 L481.0,377.8 L486.6,377.8 L492.2,377.8
		L497.7,377.8 L503.3,377.8 L508.9,377.8 L514.5,377.8 L520.1,377.8 L525.7,377.8 L531.2,377.8 L536.8,377.8
		L542.4,377.8 L548.0,377.8 L553.6,377.8 L559.2,377.8 L564.7,377.8 L570.3,377.8 L575.9,377.8 L581.5,377.8
		L587.1,377.8 L592.7,377.8 L598.2,377.8 L603.8,377.8 L609.4,377.8 L615.0,377.8  '/></g>
	</g>
	<g id="gnuplot_plot_3" ><title>score median=4000</title>
<g fill="none" color="black" stroke="currentColor" stroke-width="1.00" stroke-linecap="butt" stroke-linejoin="miter">
	<g transform="translate(579.6,475.9)" stroke="none" fill="black" font-family="Arial" font-size="12.00"  text-anchor="end">
		<text><tspan font-family="Arial" >score median=4000</tspan></text>
	</g>
</g>
<g fill="none" color="black" stroke="currentColor" stroke-width="1.00" stroke-linecap="butt" stroke-linejoin="miter">
	<path stroke='rgb( 86, 180, 233)'  d='M587.9,472.0 L630.1,472.0 M62.2,164.6 L67.8,164.6 L73.4,164.6 L79.0,164.6 L84.5,164.6 L90.1,164.6
		L95.7,164.6 L101.3,164.6 L106.9,164.6 L112.5,164.6 L118.0,164.6 L123.6,164.6 L129.2,164.6 L134.8,164.6
		L140.4,164.6 L146.0,164.6 L151.5,164.6 L157.1,164.6 L162.7,164.6 L168.3,164.6 L173.9,164.6 L179.5,164.6
		L185.0,164.6 L190.6,164.6 L196.2,164.6 L201.8,164.6 L207.4,164.6 L213.0,164.6 L218.5,164.6 L224.1,164.6
		L229.7,164.6 L235.3,164.6 L240.9,164.6 L246.5,164.6 L252.1,164.6 L257.6,164.6 L263.2,164.6 L268.8,164.6
		L274.4,164.6 L280.0,164.6 L285.6,164.6 L291.1,164.6 L296.7,164.6 L302.3,164.6 L307.9,164.6 L313.5,164.6
		L319.1,164.6 L324.6,164.6 L330.2,164.6 L335.8,164.6 L341.4,164.6 L347.0,164.6 L352.6,164.6 L358.1,164.6
		L363.7,164.6 L369.3,164.6 L374.9,164.6 L380.5,164.6 L386.1,164.6 L391.6,164.6 L397.2,164.6 L402.8,164.6
		L408.4,164.6 L414.0,164.6 L419.6,164.6 L425.1,164.6 L430.7,164.6 L436.3,164.6 L441.9,164.6 L447.5,164.6
		L453.1,164.6 L458.7,164.6 L464.2,164.6 L469.8,164.6 L475.4,164.6 L481.0,164.6 L486.6,164.6 L492.2,164.6
		L497.7,164.6 L503.3,164.6 L508.9,164.6 L514.5,164.6 L520.1,164.6 L525.7,164.6 L531.2,164.6 L536.8,164.6
		L542.4,164.6 L548.0,164.6 L553.6,164.6 L559.2,164.6 L564.7,164.6 L570.3,164.6 L575.9,164.6 L581.5,164.6
		L587.1,164.6 L592.7,164.6 L598.2,164.6 L603.8,164.6 L609.4,164.6 L615.0,164.6  '/></g>
	</g>
<g fill="none" color="#FFFFFF" stroke="rgb( 86, 180, 233)" stroke-width="2.00" stroke-linecap="butt" stroke-linejoin="miter">
</g>
<g fill="none" color="black" stroke="currentColor" stroke-width="2.00" stroke-linecap="butt" stroke-linejoin="miter">
</g>
<g fill="none" color="black" stroke="black" stroke-width="1.00" stroke-linecap="butt" stroke-linejoin="miter">
</g>
<g fill="none" color="black" stroke="currentColor" stroke-width="1.00" stroke-linecap="butt" stroke-linejoin="miter">
	<path stroke='black'  d='M62.2,18.1 L62.2,436.0 L615.0,436.0 L615.0,18.1 L62.2,18.1 Z  '/></g>
<g fill="none" color="black" stroke="currentColor" stroke-width="1.00" stroke-linecap="butt" stroke-linejoin="miter">
</g>
</g>
</svg>
